!!!OTL: AUF AUF WER DEUTSCHE FREIHEIT LIEBET
!!!ARE: Europa, Mitteleuropa, Deutschland
!!!SCT: B0043
!!!YEM: Copyright 1995, estate of Helmut Schaffrath.
**kern
*ICvox
*Ivox
*M4/4
*k[b-e-a-]
*E-:
{8b-
=1
4.ee-
8e-
8.e-
16f
8.g
16a-
=2
8.b-
16an
4b-
8r}
{8b-
8g
8e-
=3
4.cc
8cc
4.b-
8a-
=4
2g
4.r}
{8b-
=5
4.ee-
8cc
8.an
16f
8.g
16an
=6
8.b-
16an
4b-
8r}
{8b-
8b-
8dd
=7
4.cc
8cc
4ff
4an
=8
2b-
8r}
{8b-
8b-
8b-
=9
4.cc
8cc
4.b-
8b-
=10
4a-
4a-
8r}
{8f
8f
8a-
=11
4.g
8b-
4b-
8a-
8g
=12
2f
8r}
{8b-
8cc
8dd
=13
4.ee-
8ee-
4.ff
8a-
=14
4a-
4g
8r}
{8ee-
8ee-
8ee-
=15
4.f
8cc
4b-
4a-
=16
2g
8r}
{8ee-
8.dd
16ee-
=17
4cc
4a-
4f
4b-
=18
2e-
4.r}
==
!!!AGN: Kriegs -, Sieges -, Soldaten - Lied
!!!ONB: ESAC (Essen Associative Code) Database: BOEHME
!!!AMT: simple quadruple
!!!AIN: vox
!!!EED: Helmut Schaffrath
!!!EEV: 1.0
*-
